X:1
T:The Bonie Lass Of Albanie
M:4/4
L:1/8
K:A
 z4 z2 A3/2- B/2| c2 F3/2- G/2 F2A-B| c3/2- B/2c-d c2A-B| c2 F3/2- G/2 F2G-A|\
B-AG-F E2 A3/2- G/2| F3 E E2C-E| A3/2- B/2 B3/2- d/2 c2 BA| B/2- c3/2 e3/2- f/2 c3 B|\
 A2 G3/2- F/2 F2 c3/2- e/2| f3 ed-cB-A| B2 c3/2- e/2 e2 c3/2- e/2|\
 f3 ed-cB-A| A3/2- c/2B/2-A/2-G/2-F/2 E2 A3/2- G/2| F3 E E2 CE| A3/2- B/2 B3/2- d/2 c3 B/2A/2|\
 B/2- c3/2 e3/2- f/2 c3 B| A2 G3/2- F/2 F2 z2|
